X: 11278
T: Dwyer's
R: hornpipe
M: 4/4
K: Gmajor
DE|:G2 GA G2 Bd|e2 de gedB|e2 de gedB|A2 AA ABGE|
G2 GA G2 Bd|edef gfed|egde|BdAB|1 G2 GG G2 DE:|2 G2 GG G2 (3def||
|:g2 g2 a2 a2|bage e2 dB|e2 de gedB|A2 AA ABGE|
gfgb agab|bage e2 dB|egde BdAB|1 G2 GG G2 (3def:|2 G2 GA GEDE||

